public/icons/hazmat_icon.svg

<svg width="330" height="330" viewBox="0 0 330 330" fill="none" xmlns="http://www.w3.org/2000/svg">
<path d="M157.042 33.1691C157.475 33.1233 157.907 33.0725 158.343 33.0492C165.162 32.6845 171.878 34.3146 177.001 39.0409C182.934 44.5139 194.267 66.3337 198.901 74.1595L238.896 141.672L282.12 214.334C289.944 227.49 298.406 240.595 305.459 254.173C307.154 257.436 307.695 260.608 307.771 264.262C307.973 272.279 304.872 280.027 299.194 285.69C295.788 289.104 291.398 291.772 286.637 292.721C275.388 294.965 258.69 293.574 246.89 293.572L165.618 293.531L82.353 293.567C68.5638 293.58 53.8297 294.596 40.1496 293.298C35.778 292.884 31.5846 292.037 27.7741 289.783C21.3486 285.991 16.7031 279.791 14.8699 272.558C13.6527 267.696 13.5811 262.75 15.5051 258.078C19.5387 248.288 26.0249 238.887 31.418 229.771L58.4727 183.826L118.676 81.3824C125.664 69.5447 132.202 57.3415 139.414 45.6553C143.784 38.5722 149.039 35.0556 157.042 33.1691Z" fill="black"/>
<path d="M158.667 43.1893C163.2 43.1111 167.151 43.693 170.637 46.8966C176.327 52.124 186.888 72.6217 191.386 80.2693L225.332 137.899L272.822 217.863C280.038 230.031 287.802 242.076 294.568 254.491C296.318 257.704 297.822 260.688 297.942 264.416C298.102 269.399 296.362 274.389 292.845 277.952C290.26 280.615 286.89 282.38 283.229 282.988C272.968 284.723 257.029 283.484 246.194 283.481L163.745 283.441L83.7606 283.486C69.9032 283.5 55.5112 284.297 41.7087 283.266C39.0396 283.068 36.4488 282.689 34.0203 281.502C30.045 279.559 26.5967 275.775 25.2305 271.549C23.2499 265.423 24.7851 260.975 27.6473 255.497C33.8397 243.643 41.3566 232.34 48.0035 220.721C69.4353 183.642 91.1251 146.713 113.073 109.938C120.831 96.8916 128.688 83.8917 136.291 70.7544C140.447 63.573 144.441 54.585 149.698 48.1978C152.055 45.3339 155.251 44.25 158.667 43.1893Z" fill="#FED300"/>
<path d="M157.55 96.2988C160.911 95.9875 164.271 96.2131 167.502 97.213C173.165 98.9663 177.276 102.596 179.998 107.825C181.748 111.186 181.668 115.095 181.564 118.795C181.299 128.173 173.682 198.521 171.454 204.647C170.054 208.494 167.019 210.297 163.531 211.964C160.642 212.462 157.819 212.022 155.241 210.625C152.835 209.323 151.055 207.108 150.3 204.478C146.931 193.145 146.387 176.353 144.968 164.156C143.317 149.963 139.645 129.352 139.958 115.579C140.029 112.486 140.858 109.894 142.359 107.207C145.738 101.161 151.072 98.1137 157.55 96.2988Z" fill="black"/>
<path d="M158.099 227.113C164.424 226.147 170.783 228.652 174.749 233.675C178.715 238.698 179.678 245.465 177.271 251.396C174.865 257.327 169.46 261.508 163.115 262.345C153.445 263.622 144.55 256.872 143.175 247.212C141.8 237.553 148.457 228.588 158.099 227.113Z" fill="black"/>
</svg>

<svg xmlns="http://www.w3.org/2000/svg" width="330" height="330" fill="none" viewBox="0 0 330 330"><path fill="#000" d="M157.042 33.17c.433-.047.865-.098 1.301-.12 6.819-.365 13.535 1.265 18.658 5.99 5.933 5.474 17.266 27.294 21.9 35.12l39.995 67.512 43.224 72.662c7.824 13.156 16.286 26.261 23.339 39.839 1.695 3.263 2.236 6.435 2.312 10.089a29.22 29.22 0 0 1-8.577 21.428c-3.406 3.414-7.796 6.082-12.557 7.031-11.249 2.244-27.947.853-39.747.851l-81.272-.041-83.265.036c-13.79.013-28.523 1.029-42.203-.269-4.372-.414-8.565-1.261-12.376-3.515a27.98 27.98 0 0 1-12.904-17.225c-1.217-4.862-1.289-9.808.635-14.48 4.034-9.79 10.52-19.191 15.913-28.307l27.055-45.945 60.203-102.444c6.988-11.837 13.526-24.04 20.738-35.727 4.37-7.083 9.625-10.6 17.628-12.486"/><path fill="#fed300" d="M158.667 43.19c4.533-.079 8.484.503 11.97 3.707 5.69 5.227 16.251 25.725 20.749 33.372l33.946 57.63 47.49 79.964c7.216 12.168 14.98 24.213 21.746 36.628 1.75 3.213 3.254 6.197 3.374 9.925.16 4.983-1.58 9.973-5.097 13.536a17.37 17.37 0 0 1-9.616 5.036c-10.261 1.735-26.2.496-37.035.493l-82.449-.04-79.984.045c-13.858.014-28.25.811-42.052-.22-2.67-.198-5.26-.577-7.689-1.764-3.975-1.943-7.423-5.727-8.79-9.953-1.98-6.126-.445-10.574 2.417-16.052 6.193-11.854 13.71-23.157 20.357-34.776a9186 9186 0 0 1 65.069-110.783c7.758-13.046 15.615-26.046 23.218-39.184 4.156-7.181 8.15-16.169 13.407-22.556 2.357-2.864 5.553-3.948 8.969-5.009"/><path fill="#000" d="M157.55 96.299c3.361-.312 6.721-.086 9.952.914 5.663 1.753 9.774 5.383 12.496 10.612 1.75 3.361 1.67 7.27 1.566 10.97-.265 9.378-7.882 79.726-10.11 85.852-1.4 3.847-4.435 5.65-7.923 7.317-2.889.498-5.712.058-8.29-1.339a10.18 10.18 0 0 1-4.941-6.147c-3.369-11.333-3.913-28.125-5.332-40.322-1.651-14.193-5.323-34.804-5.01-48.577.071-3.093.9-5.685 2.401-8.372 3.379-6.046 8.713-9.093 15.191-10.908m.549 130.814a17.793 17.793 0 0 1 19.172 24.283 17.79 17.79 0 0 1-14.156 10.949c-9.67 1.277-18.565-5.473-19.94-15.133s5.282-18.624 14.924-20.099"/></svg>
